public/shiftcoach-bubble.svg

<svg xmlns="http://www.w3.org/2000/svg" viewBox="0 0 44 44"><rect width="40" height="40" x="2" y="2" fill="#007aff" rx="12"/><path fill="#fff" d="M22 12c-5.52 0-10 3.77-10 8.4 0 2.62 1.42 4.92 3.66 6.41-.24.95-1.33 4.58-1.47 5.15-.18.74.54 1.32 1.17.97.86-.47 4.67-2.61 5.77-3.25.28.15.57.3.88.43.31.12.65.21.99.27 5.52 0 10-3.77 10-8.38 0-4.62-4.48-10-11-10"/></svg>

<svg width="44" height="44" viewBox="0 0 44 44" xmlns="http://www.w3.org/2000/svg">
  <!-- Rounded blue square -->
  <rect x="2" y="2" width="40" height="40" rx="12" fill="#007AFF"></rect>

  <!-- White speech bubble -->
  <path d="M22 12C16.48 12 12 15.77 12 20.4C12 23.02 13.42 25.32 15.66 26.81C15.42 27.76 14.33 31.39 14.19 31.96C14.01 32.7 14.73 33.28 15.36 32.93C16.22 32.46 20.03 30.32 21.13 29.68C21.41 29.83 21.7 29.98 22.01 30.11C22.32 30.23 22.66 30.32 23 30.38C28.52 30.38 33 26.61 33 22C33 17.38 28.52 12 22 12Z" fill="white"></path>
</svg>
